src/devices/symbolic/phone-old-symbolic.svg

<svg width="16" height="16" version="1.1" xmlns="http://www.w3.org/2000/svg">
 <path d="m3.5 0c-0.277 0-0.5 0.223-0.5 0.5v4.5 1.5 6.5c0 1.108 0.892 2 2 2h5c1.108 0 2-0.892 2-2v-8c0-1.108-0.892-2-2-2h-5c-0.36522 0-0.70592 0.097953-1 0.26758v-2.7676c0-0.277-0.223-0.5-0.5-0.5zm1.5 4h5c0.554 0 1 0.446 1 1v8c0 0.554-0.446 1-1 1h-5c-0.554 0-1-0.446-1-1v-6.5-1.5c0-0.554 0.446-1 1-1zm0.75586 1c-0.41578-0.0011102-0.75306 0.33618-0.75195 0.75195v1.4961c-0.0011102 0.41578 0.33618 0.75306 0.75195 0.75195h3.4961c0.41539 5.553e-4 0.75111-0.33657 0.75-0.75195v-1.4961c0.00111-0.41578-0.33618-0.75306-0.75195-0.75195h-3.4941zm0.24414 1h3v1h-3v-1zm-0.49609 4c-0.66667 0-0.66667 1 0 1h1.1426c0.66667 0 0.66667-1 0-1h-1.1426zm2.8555 0c-0.66667 0-0.66667 1 0 1h1.1445c0.66667 0 0.66667-1 0-1h-1.1445zm-2.8555 2c-0.66667 0-0.66667 1 0 1h1.1426c0.66667 0 0.66667-1 0-1h-1.1426zm2.8555 0c-0.66667 0-0.66667 1 0 1h1.1445c0.66667 0 0.66667-1 0-1h-1.1445z" fill="#363636"/>
</svg>

<svg xmlns="http://www.w3.org/2000/svg" width="16" height="16">
    <path fill="#050505" fill-opacity=".7" d="M3.5 0c-.277 0-.5.223-.5.5V13c0 1.108.892 2 2 2h5c1.108 0 2-.892 2-2V5c0-1.108-.892-2-2-2H5c-.365 0-.706.098-1 .268V.5c0-.277-.223-.5-.5-.5zM5 4h5c.554 0 1 .446 1 1v8c0 .554-.446 1-1 1H5c-.554 0-1-.446-1-1V5c0-.554.446-1 1-1zm.756 1a.75.75 0 0 0-.752.752v1.496A.75.75 0 0 0 5.756 8h3.496a.75.75 0 0 0 .75-.752V5.752A.75.75 0 0 0 9.25 5H5.756zM6 6h3v1H6V6zm-.496 4c-.667 0-.667 1 0 1h1.143c.666 0 .666-1 0-1H5.504zm2.855 0c-.666 0-.666 1 0 1h1.145c.667 0 .667-1 0-1H8.359zm-2.855 2c-.667 0-.667 1 0 1h1.143c.666 0 .666-1 0-1H5.504zm2.855 0c-.666 0-.666 1 0 1h1.145c.667 0 .667-1 0-1H8.359z"/>
</svg>
